svg/cloud-upload.svg

<svg width="24" height="24" viewBox="0 0 24 24" fill="none" xmlns="http://www.w3.org/2000/svg">
<path d="M11 4C8.79082 4 7 5.79085 7 8C7 8.03242 7.00047 8.06627 7.00131 8.10224C7.01219 8.56727 6.70099 8.97839 6.25047 9.09416C4.95577 9.42685 4 10.6031 4 12C4 13.6569 5.34317 15 7 15H8C8.55228 15 9 15.4477 9 16C9 16.5523 8.55228 17 8 17H7C4.23861 17 2 14.7614 2 12C2 9.93746 3.2482 8.16845 5.02926 7.40373C5.32856 4.36995 7.88746 2 11 2C13.2236 2 15.1629 3.20934 16.199 5.00324C19.4207 5.10823 22 7.75289 22 11C22 14.3137 19.3138 17 16 17C15.4477 17 15 16.5523 15 16C15 15.4477 15.4477 15 16 15C18.2092 15 20 13.2091 20 11C20 8.79085 18.2092 7 16 7C15.8893 7 15.78 7.00447 15.6718 7.01322C15.2449 7.04776 14.8434 6.8066 14.6734 6.4135C14.0584 4.99174 12.6439 4 11 4ZM11.2929 9.29289C11.6834 8.90237 12.3166 8.90237 12.7071 9.29289L14.7071 11.2929C15.0976 11.6834 15.0976 12.3166 14.7071 12.7071C14.3166 13.0976 13.6834 13.0976 13.2929 12.7071L13 12.4142V20C13 20.5523 12.5523 21 12 21C11.4477 21 11 20.5523 11 20V12.4142L10.7071 12.7071C10.3166 13.0976 9.68342 13.0976 9.29289 12.7071C8.90237 12.3166 8.90237 11.6834 9.29289 11.2929L11.2929 9.29289Z" fill="#0D0D0D"/>
</svg>

<svg width="24" height="24" fill="none" xmlns="http://www.w3.org/2000/svg"><path d="M11 4a4 4 0 00-3.999 4.102 1 1 0 01-.75.992A3.002 3.002 0 007 15h1a1 1 0 110 2H7a5 5 0 01-1.97-9.596 6 6 0 0111.169-2.4A6 6 0 0116 17a1 1 0 110-2 4 4 0 10-.328-7.987 1 1 0 01-.999-.6A4.001 4.001 0 0011 4zm.293 5.293a1 1 0 011.414 0l2 2a1 1 0 01-1.414 1.414L13 12.414V20a1 1 0 11-2 0v-7.586l-.293.293a1 1 0 01-1.414-1.414l2-2z" fill="#0D0D0D"/></svg>
